X:1
N: Seann Truibhas Willichan
N: 8x32S 2C (RSCDS Book 27 dance 9)
T: My Dearie
C: James Johnstone 1771
C: arr. T. Traub 12-24-98
R: Reel
M: 4/4
K: G
L: 1/8
BA |\
"G"G2 D2 "D"D>EGB, | "G"D3 E D2 GA |\
"G"BAGF "Em"E>FED | "Am"E2 A2 "D"A2 B2 |\
"G"D3 E "Em"G3 B | 
"Am"A>GAB "Bm"d3 e |\
"G"d2 c>B "C"cB"Am"AG | "C"E2 G2 "G"G2 "D7"Bc ||\
"G"d3 e "Em"degB |\ 
"Am"AGAB "Bm"d2 Bd | 
"Em"e>fgf edBd | "C"e6 "D"f2 |\
"G"g2 dc"Em"B2 AG | "Am"A>GAB "Bm"d3e |\
"G"d>e"Em"gB "Am"cB"D"AG | "C"E2 G2 "G"G2 |] 
